X: 10431
M: C|
L: 1/16
K: A
uB2 |\
(eA3) dcBA G2B2 ED3 | C3EAc3 dcBA G2B2 |
(.a3.e) (fe)dc c2e2 E3D | C2E2 cBAG A4 A2 ||
ug2 |\
a3A dcBA c2e2c2A2 | d2E2c2e2 dcBA G3B |\
a3A dcBA c2e2c2A2 | d2B2 E2e2 c2(.A2"^>".A2)ug2 |
a3A dcBA c2e2c2A2 | d2E2 c2e2 dcBA G2B2 |\


